images/icon/github-icon.svg

<svg height="100" viewBox="0 0 100 100" width="100" xmlns="http://www.w3.org/2000/svg"><path d="m35.582031 93.671875c1.421875-.613281 2.417969-2.027344 2.417969-3.671875v-10.800781c0-.394531.03125-.804688.082031-1.21875-.027343.007812-.054687.011719-.082031.019531 0 0-6 0-7.199219 0-3 0-5.601562-1.199219-6.800781-3.601562-1.398438-2.597657-2-7-5.601562-9.398438-.597657-.398438-.199219-1 1-1 1.203124.199219 3.800781 1.800781 5.402343 4 1.800781 2.199219 3.597657 4 6.800781 4 4.972657 0 7.636719-.25 9.242188-1.109375 1.867188-2.777344 4.453125-4.890625 7.15625-4.890625v-.050781c-11.335938-.363281-18.578125-4.132813-21.949219-9.949219-7.332031.085938-13.710937.808594-17.355469 1.414062-.117187-.652343-.214843-1.3125-.300781-1.972656 3.59375-.59375 9.683594-1.296875 16.691407-1.429687-.226563-.550781-.421876-1.117188-.582032-1.699219-7.023437-.355469-13.082031-.078125-16.375.195312-.039062-.664062-.09375-1.324218-.101562-1.996093 3.296875-.273438 9.191406-.542969 16.035156-.222657-.160156-1-.261719-2.023437-.261719-3.085937 0-3.402344 1.203125-7 3.402344-10-1-3.402344-2.402344-10.601563.398437-13.199219 5.402344 0 9.199219 2.597656 11 4.199219 3.398438-1.402344 7.199219-2.203125 11.398438-2.203125s8 .800781 11.199219 2.199219c1.800781-1.597657 5.601562-4.199219 11-4.199219 3 2.800781 1.402343 10 .402343 13.199219 2.199219 3 3.398438 6.402343 3.199219 10 0 .96875-.089843 1.902343-.222656 2.820312 7-.34375 13.054687-.070312 16.410156.203125-.003906.671875-.066406 1.332032-.101562 1.996094-3.34375-.273438-9.550781-.558594-16.71875-.175781-.179688.671875-.394531 1.324219-.648438 1.960937 7.089844.089844 13.328125.777344 17.09375 1.375-.085937.664063-.183593 1.324219-.300781 1.976563-3.824219-.613281-10.34375-1.328125-17.757812-1.367188-3.332032 5.757813-10.441407 9.511719-21.554688 9.949219v.0625c5.199219 0 10 7.800781 10 13.199219v10.800781c0 1.644531.996094 3.058594 2.417969 3.671875 18.320312-6.0625 31.582031-23.34375 31.582031-43.671875 0-25.363281-20.632812-46-46-46s-46 20.636719-46 46c0 20.328125 13.261719 37.609375 31.582031 43.671875zm0 0" fill="#fff"/></svg>

<?xml version="1.0" encoding="UTF-8"?>
<svg xmlns="http://www.w3.org/2000/svg" xmlns:xlink="http://www.w3.org/1999/xlink" viewBox="0 0 100 100" width="100px" height="100px">
<g id="surface28202086">
<path style=" stroke:none;fill-rule:nonzero;fill:rgb(100%,100%,100%);fill-opacity:1;" d="M 35.582031 93.671875 C 37.003906 93.058594 38 91.644531 38 90 L 38 79.199219 C 38 78.804688 38.03125 78.394531 38.082031 77.980469 C 38.054688 77.988281 38.027344 77.992188 38 78 C 38 78 32 78 30.800781 78 C 27.800781 78 25.199219 76.800781 24 74.398438 C 22.601562 71.800781 22 67.398438 18.398438 65 C 17.800781 64.601562 18.199219 64 19.398438 64 C 20.601562 64.199219 23.199219 65.800781 24.800781 68 C 26.601562 70.199219 28.398438 72 31.601562 72 C 36.574219 72 39.238281 71.75 40.84375 70.890625 C 42.710938 68.113281 45.296875 66 48 66 L 48 65.949219 C 36.664062 65.585938 29.421875 61.816406 26.050781 56 C 18.71875 56.085938 12.339844 56.808594 8.695312 57.414062 C 8.578125 56.761719 8.480469 56.101562 8.394531 55.441406 C 11.988281 54.847656 18.078125 54.144531 25.085938 54.011719 C 24.859375 53.460938 24.664062 52.894531 24.503906 52.3125 C 17.480469 51.957031 11.421875 52.234375 8.128906 52.507812 C 8.089844 51.84375 8.035156 51.183594 8.027344 50.511719 C 11.324219 50.238281 17.21875 49.96875 24.0625 50.289062 C 23.902344 49.289062 23.800781 48.265625 23.800781 47.203125 C 23.800781 43.800781 25.003906 40.203125 27.203125 37.203125 C 26.203125 33.800781 24.800781 26.601562 27.601562 24.003906 C 33.003906 24.003906 36.800781 26.601562 38.601562 28.203125 C 42 26.800781 45.800781 26 50 26 C 54.199219 26 58 26.800781 61.199219 28.199219 C 63 26.601562 66.800781 24 72.199219 24 C 75.199219 26.800781 73.601562 34 72.601562 37.199219 C 74.800781 40.199219 76 43.601562 75.800781 47.199219 C 75.800781 48.167969 75.710938 49.101562 75.578125 50.019531 C 82.578125 49.675781 88.632812 49.949219 91.988281 50.222656 C 91.984375 50.894531 91.921875 51.554688 91.886719 52.21875 C 88.542969 51.945312 82.335938 51.660156 75.167969 52.042969 C 74.988281 52.714844 74.773438 53.367188 74.519531 54.003906 C 81.609375 54.09375 87.847656 54.78125 91.613281 55.378906 C 91.527344 56.042969 91.429688 56.703125 91.3125 57.355469 C 87.488281 56.742188 80.96875 56.027344 73.554688 55.988281 C 70.222656 61.746094 63.113281 65.5 52 65.9375 L 52 66 C 57.199219 66 62 73.800781 62 79.199219 L 62 90 C 62 91.644531 62.996094 93.058594 64.417969 93.671875 C 82.738281 87.609375 96 70.328125 96 50 C 96 24.636719 75.367188 4 50 4 C 24.632812 4 4 24.636719 4 50 C 4 70.328125 17.261719 87.609375 35.582031 93.671875 Z M 35.582031 93.671875 "/>
</g>
</svg>
